24x24/apps/checkra1n.svg

<svg xmlns="http://www.w3.org/2000/svg" width="24" height="24" version="1">
 <path style="opacity:0.2" d="m 15.976562,2.5 c 1e-6,0 -1.796211,0.00648 -3.08789,1.5078125 -1.148644,1.335039 -0.855469,2.4785156 -0.855469,2.4785156 0,0 1.557579,0.2370461 2.927735,-1.2148437 C 16.244156,3.9117402 15.976562,2.5 15.976562,2.5 Z m -0.121093,5 c -1.633143,0 -2.886466,0.9179688 -3.5625,0.9179688 -0.78751,0 -1.963717,-0.8632813 -3.4785159,-0.8632813 C 6.4843156,7.5546875 4,9.6156853 4,13.542969 4,17.534689 6.9346405,22.50006 9.2578125,22.5 c 0.8109365,0 2.0558645,-1 3.3105465,-1 1.23119,0 2.140092,0.970703 3.308594,0.970703 2.544125,0 4.427735,-5.234375 4.427735,-5.234375 0,0 -2.804688,-1.030461 -2.804688,-4.019531 0,-2.649672 2.273438,-3.7421876 2.273438,-3.7421876 C 19.773437,9.4746094 18.666642,7.5 15.855469,7.5 Z"/>
 <path style="fill:#999999" d="M 12.889499,3.5086511 C 14.181178,2.0073155 15.976921,2 15.976921,2 c 0,0 0.267114,1.4115037 -1.016105,2.7712479 -1.370156,1.4518898 -2.927528,1.2143071 -2.927528,1.2143071 0,0 -0.292433,-1.1418649 0.856211,-2.4769039 z"/>
 <path style="fill:#999999" d="M 12.292208,7.917632 C 12.968242,7.917632 14.222923,7 15.856066,7 c 2.811173,0 3.917086,1.9752295 3.917086,1.9752295 0,0 -2.273152,1.0920055 -2.273152,3.7416775 0,2.98907 2.804654,4.019194 2.804654,4.019194 0,0 -1.883534,5.234904 -4.427659,5.234904 C 14.708493,21.971005 13.800041,21 12.568851,21 11.314169,21 10.069081,22 9.2581445,22 6.9349725,22.00006 4,17.034219 4,13.042499 4,9.1152155 6.484262,7.0550295 8.8143995,7.0550295 c 1.5147985,0 2.6902985,0.8626025 3.4778085,0.8626025 z"/>
 <path style="opacity:0.1" d="m 12,9.5 v 1 h -1 v 1 h 1 v 1 h -0.435547 c -0.277,0 -0.623878,0.252244 -0.5,0.5 l 0.5,1 c 0.07903,0.15807 0.152167,0.3112 0.263672,0.40625 -7.27e-4,0.03197 -0.0085,0.06191 -0.0098,0.09375 H 11 V 15 h 0.767578 c -0.129477,1.064759 -0.51657,2.045115 -1.097656,2.859375 -0.05931,0.09405 -0.121517,0.204216 -0.138672,0.244141 -0.03118,0.07263 -0.04411,0.352805 -0.01758,0.384765 0.0077,0.0093 0.904168,0.01341 1.986328,0.0098 1.082159,0.0037 1.97672,-4.26e-4 1.984375,-0.0098 0.02654,-0.03196 0.01556,-0.312138 -0.01563,-0.384765 -0.01716,-0.03993 -0.08131,-0.150092 -0.140625,-0.244141 C 13.747038,17.045115 13.361899,16.064759 13.232422,15 H 14 v -0.5 h -0.818359 c -3.56e-4,-0.0093 -0.0016,-0.01808 -0.002,-0.02734 C 13.36801,14.40984 13.460634,14.20764 13.564453,14 l 0.5,-1 c 0.123878,-0.247756 -0.223,-0.5 -0.5,-0.5 H 13 v -1 h 1 v -1 h -1 v -1 z m -1.583984,9 C 10.185182,18.5 10,18.649318 10,18.833984 v 0.332032 C 10,19.350682 10.185182,19.5 10.416016,19.5 h 4.167968 C 14.814818,19.5 15,19.350682 15,19.166016 V 18.833984 C 15,18.649318 14.814818,18.5 14.583984,18.5 Z"/>
 <path style="fill:#17191e" d="m 11.828106,13.900157 c -0.02832,1.299804 -0.467687,2.493728 -1.157226,3.45996 -0.05931,0.09405 -0.122494,0.203239 -0.139649,0.243164 -0.03118,0.07263 -0.04313,0.352806 -0.0166,0.384766 0.0077,0.0093 0.903192,0.01438 1.985352,0.01074 1.082159,0.0037 1.977696,-0.0014 1.985351,-0.01074 0.02654,-0.03196 0.01458,-0.312139 -0.0166,-0.384766 -0.01716,-0.03993 -0.08034,-0.149115 -0.139651,-0.243164 -0.68954,-0.966232 -1.128907,-2.160156 -1.157227,-3.45996 h -0.671875 z"/>
 <rect style="fill:#17191e" width="5" height="1" x="10" y="18" rx=".417" ry=".333"/>
 <path style="fill:#17191e" d="m 11.564035,12 h 2 c 0.277,0 0.623878,0.252244 0.5,0.5 l -0.5,1 c -0.123878,0.247757 -0.223,0.5 -0.5,0.5 h -1 c -0.277,0 -0.376122,-0.252243 -0.5,-0.5 l -0.5,-1 c -0.123878,-0.247756 0.223,-0.5 0.5,-0.5 z"/>
 <rect style="fill:#17191e" width="1" height="3" x="12" y="9"/>
 <rect style="fill:#17191e" width="1" height="3" x="10" y="-14" transform="rotate(90)"/>
 <rect style="fill:#17191e" width="3" height=".5" x="11" y="14"/>
 <path style="fill:#f4f4f7;opacity:0.1" d="M 15.976562 2 C 15.976564 2 14.180351 2.0064769 12.888672 3.5078125 C 11.852833 4.7117406 11.984646 5.7139434 12.021484 5.9082031 C 12.058707 5.44816 12.229014 4.7745153 12.888672 4.0078125 C 14.180351 2.50648 15.976563 2.5 15.976562 2.5 C 15.976562 2.5 15.976511 2.5094846 15.976562 2.5097656 C 15.990696 2.2183547 15.976562 2 15.976562 2 z M 15.855469 7 C 14.222326 7 12.969003 7.9179688 12.292969 7.9179688 C 11.505459 7.9179688 10.329252 7.0546875 8.8144531 7.0546875 C 6.4843156 7.0546875 4 9.1156851 4 13.042969 C 4 13.122688 4.0074529 13.204708 4.0097656 13.285156 C 4.1179153 9.5287119 6.5368325 7.5546875 8.8144531 7.5546875 C 10.329252 7.5546875 11.505459 8.4179688 12.292969 8.4179688 C 12.969003 8.4179688 14.222326 7.5 15.855469 7.5 C 17.919015 7.5 19.058322 8.5590713 19.521484 9.125 C 19.638769 9.0539347 19.773438 8.9746094 19.773438 8.9746094 C 19.773437 8.9746094 18.666642 7 15.855469 7 z M 17.513672 12.955078 C 17.508541 13.042029 17.5 13.126225 17.5 13.216797 C 17.5 15.913127 19.685785 16.966147 20.132812 17.15625 C 20.192273 17.005959 20.304688 16.736328 20.304688 16.736328 C 20.304688 16.736328 17.660693 15.75637 17.513672 12.955078 z"/>
</svg>

<svg xmlns="http://www.w3.org/2000/svg" width="24" height="24" version="1"><path style="opacity:.2" d="M15.977 2.5s-1.797.006-3.088 1.508c-1.149 1.335-.856 2.478-.856 2.478s1.558.237 2.928-1.215c1.283-1.36 1.016-2.771 1.016-2.771zm-.122 5c-1.633 0-2.886.918-3.562.918-.788 0-1.964-.863-3.479-.863C6.484 7.555 4 9.615 4 13.543 4 17.535 6.935 22.5 9.258 22.5c.81 0 2.056-1 3.31-1 1.232 0 2.14.97 3.309.97 2.544 0 4.428-5.234 4.428-5.234s-2.805-1.03-2.805-4.02c0-2.649 2.273-3.741 2.273-3.741S18.667 7.5 15.855 7.5z"/><path style="fill:#999" d="M12.89 3.509C14.18 2.007 15.976 2 15.976 2s.267 1.412-1.016 2.771c-1.37 1.452-2.928 1.215-2.928 1.215s-.292-1.142.856-2.477zM12.292 7.918c.676 0 1.93-.918 3.564-.918 2.811 0 3.917 1.975 3.917 1.975S17.5 10.067 17.5 12.717c0 2.989 2.805 4.02 2.805 4.02s-1.884 5.234-4.428 5.234c-1.169 0-2.077-.971-3.308-.971-1.255 0-2.5 1-3.31 1C6.934 22 4 17.034 4 13.042c0-3.927 2.484-5.987 4.814-5.987 1.515 0 2.69.863 3.478.863z"/><path style="opacity:.1" d="M12 9.5v1h-1v1h1v1h-.436c-.277 0-.623.252-.5.5l.5 1c.08.158.153.311.264.406 0 .032-.008.062-.01.094H11v.5h.768a6.209 6.209 0 0 1-1.098 2.86c-.06.093-.122.204-.139.244-.03.072-.044.352-.017.384.007.01.904.014 1.986.01 1.082.004 1.977 0 1.984-.01.027-.032.016-.312-.015-.384a2.691 2.691 0 0 0-.14-.245A6.206 6.206 0 0 1 13.231 15H14v-.5h-.818l-.002-.027c.188-.063.28-.265.384-.473l.5-1c.124-.248-.223-.5-.5-.5H13v-1h1v-1h-1v-1zm-1.584 9c-.23 0-.416.15-.416.334v.332c0 .185.185.334.416.334h4.168c.23 0 .416-.15.416-.334v-.332c0-.185-.185-.334-.416-.334z"/><path style="fill:#17191e" d="M11.828 13.9a6.189 6.189 0 0 1-1.157 3.46c-.06.094-.123.203-.14.243-.03.073-.043.353-.016.385.007.01.903.014 1.985.01 1.082.004 1.978 0 1.985-.01.027-.032.015-.312-.016-.385-.017-.04-.08-.149-.14-.243a6.189 6.189 0 0 1-1.157-3.46H12.5z"/><rect style="fill:#17191e" width="5" height="1" x="10" y="18" rx=".417" ry=".333"/><path style="fill:#17191e" d="M11.564 12h2c.277 0 .624.252.5.5l-.5 1c-.124.248-.223.5-.5.5h-1c-.277 0-.376-.252-.5-.5l-.5-1c-.124-.248.223-.5.5-.5zM12 9h1v3h-1z"/><path style="fill:#17191e" transform="rotate(90)" d="M10-14h1v3h-1z"/><path style="fill:#17191e" d="M11 14h3v.5h-3z"/><path style="fill:#f4f4f7;opacity:.1" d="M15.977 2s-1.797.006-3.088 1.508c-1.036 1.204-.904 2.206-.868 2.4.038-.46.208-1.133.868-1.9C14.18 2.506 15.977 2.5 15.977 2.5v.01c.014-.292 0-.51 0-.51zm-.122 5c-1.633 0-2.886.918-3.562.918-.788 0-1.964-.863-3.479-.863C6.484 7.055 4 9.115 4 13.043c0 .08.007.162.01.242.108-3.756 2.527-5.73 4.804-5.73 1.515 0 2.691.863 3.479.863.676 0 1.93-.918 3.562-.918 2.064 0 3.203 1.06 3.666 1.625l.252-.15S18.667 7 15.855 7zm1.659 5.955c-.005.087-.014.171-.014.262 0 2.696 2.186 3.75 2.633 3.94.06-.151.172-.42.172-.42s-2.644-.98-2.791-3.782z"/></svg>
